.icons/Gruvbox-Plus-Dark/apps/16/clawsker.svg

<svg width="16" height="16" version="1.1" xmlns="http://www.w3.org/2000/svg">
  <defs>
    <style type="text/css" id="current-color-scheme">.ColorScheme-Text { color:#ebdbb2; } .ColorScheme-Highlight { color:#458588; }</style>
  </defs>
  <path class="ColorScheme-Text" fill="currentColor" d="m1.6 1.6c-0.88 0-1.592 0.7196-1.592 1.6l-0.007812 9.602c0 0.88 0.7196 1.6 1.6 1.6h12.8c0.88 0 1.6-0.7196 1.6-1.6v-9.602c0-0.88-0.7196-1.6-1.6-1.6zm0 1.6 12.8 0.00195-3.871 2.42c0.221 0.393 0.3398 0.8378 0.3398 1.301v0.08594l3.531-2.207v8h-12.8v-8l3.709 2.318c0.073-0.034 0.1495-0.06112 0.2305-0.07812v-0.1191c0-0.388 0.08519-0.7644 0.2422-1.107zm6.607 1.709c-1.11 0-2.016 0.9056-2.016 2.016v0.7422h-0.4238c-0.234 0-0.4238 0.1908-0.4238 0.4238v3.605c0 0.234 0.1898 0.4238 0.4238 0.4238h4.879c0.234 0 0.4258-0.1898 0.4258-0.4238v-3.605c0-0.233-0.1918-0.4238-0.4258-0.4238h-0.4238v-0.7422c0-1.11-0.9066-2.016-2.016-2.016zm0 1.271c0.402 0 0.7422 0.3411 0.7422 0.7441v0.7422h-1.484v-0.7422c-1e-7 -0.403 0.3392-0.7441 0.7422-0.7441zm0 2.971c0.293 0 0.5312 0.2373 0.5312 0.5312 1e-7 0.173-0.08489 0.3229-0.2129 0.4199v0.4258c0 0.175-0.1434 0.3203-0.3184 0.3203-0.175 0-0.3184-0.1453-0.3184-0.3203v-0.4258c-0.133-0.099-0.2099-0.2539-0.2109-0.4199 0-0.294 0.2353-0.5312 0.5293-0.5312z"/>
</svg>

<svg xmlns="http://www.w3.org/2000/svg" style="isolation:isolate" width="16" height="16" viewBox="0 0 16 16">
 <defs>
  <style id="current-color-scheme" type="text/css">
   .ColorScheme-Text { color:#ebdbb2; } .ColorScheme-Highlight { color:#458588; }
  </style>
  <linearGradient id="arrongin" x1="0%" x2="0%" y1="0%" y2="100%">
   <stop offset="0%" style="stop-color:#d79921; stop-opacity:1"/>
   <stop offset="100%" style="stop-color:#b57614; stop-opacity:1"/>
  </linearGradient>
  <linearGradient id="aurora" x1="0%" x2="0%" y1="0%" y2="100%">
   <stop offset="0%" style="stop-color:#83a598; stop-opacity:1"/>
   <stop offset="100%" style="stop-color:#b16286; stop-opacity:1"/>
  </linearGradient>
  <linearGradient id="fitdance" x1="0%" x2="0%" y1="0%" y2="100%">
   <stop offset="0%" style="stop-color:#8ec07c; stop-opacity:1"/>
   <stop offset="100%" style="stop-color:#458588; stop-opacity:1"/>
  </linearGradient>
  <linearGradient id="oomox" x1="0%" x2="0%" y1="0%" y2="100%">
   <stop offset="0%" style="stop-color:#458588; stop-opacity:1"/>
   <stop offset="100%" style="stop-color:#928374; stop-opacity:1"/>
  </linearGradient>
  <linearGradient id="rainblue" x1="0%" x2="0%" y1="0%" y2="100%">
   <stop offset="0%" style="stop-color:#b8bb26; stop-opacity:1"/>
   <stop offset="100%" style="stop-color:#076678; stop-opacity:1"/>
  </linearGradient>
  <linearGradient id="sunrise" x1="0%" x2="0%" y1="0%" y2="100%">
   <stop offset="0%" style="stop-color: #fe8019; stop-opacity:1"/>
   <stop offset="100%" style="stop-color: #fabd2f; stop-opacity:1"/>
  </linearGradient>
  <linearGradient id="telinkrin" x1="0%" x2="0%" y1="0%" y2="100%">
   <stop offset="0%" style="stop-color: #83a598; stop-opacity:1"/>
   <stop offset="100%" style="stop-color: #83a598; stop-opacity:1"/>
  </linearGradient>
  <linearGradient id="60spsycho" x1="0%" x2="0%" y1="0%" y2="100%">
   <stop offset="0%" style="stop-color: #fb4934; stop-opacity:1"/>
   <stop offset="25%" style="stop-color: #fabd2f; stop-opacity:1"/>
   <stop offset="50%" style="stop-color: #fe8019; stop-opacity:1"/>
   <stop offset="100%" style="stop-color: #689d6a; stop-opacity:1"/>
  </linearGradient>
  <linearGradient id="90ssummer" x1="0%" x2="0%" y1="0%" y2="100%">
   <stop offset="0%" style="stop-color: #b16286; stop-opacity:1"/>
   <stop offset="20%" style="stop-color: #8ec07c; stop-opacity:1"/>
   <stop offset="50%" style="stop-color: #fabd2f; stop-opacity:1"/>
   <stop offset="100%" style="stop-color: #458588; stop-opacity:1"/>
  </linearGradient>
  <linearGradient id="cyberneon" x1="0%" x2="0%" y1="0%" y2="100%">
    <stop offset="0" style="stop-color:#83a598; stop-opacity:1"/>
    <stop offset="1" style="stop-color:#b16286; stop-opacity:1"/>
  </linearGradient>
 </defs>
 <path style="fill:currentColor" class="ColorScheme-Text" fill-rule="evenodd" d="M 5.308 7.117 L 1.6 4.8 L 1.6 12.8 L 14.4 12.8 L 14.4 12.8 L 14.4 4.8 L 10.87 7.006 L 10.87 6.92 C 10.87 6.457 10.751 6.012 10.53 5.619 L 14.4 3.2 L 1.6 3.2 L 5.781 5.813 C 5.624 6.156 5.54 6.532 5.54 6.92 L 5.54 7.04 C 5.459 7.057 5.381 7.083 5.308 7.117 L 5.308 7.117 Z M 14.4 1.6 L 1.6 1.6 C 0.72 1.6 0.008 2.32 0.008 3.2 L 0 12.8 C 0 13.68 0.72 14.4 1.6 14.4 L 14.4 14.4 C 15.28 14.4 16 13.68 16 12.8 L 16 3.2 C 16 2.32 15.28 1.6 14.4 1.6 L 14.4 1.6 L 14.4 1.6 Z M 8.208 9.149 C 8.501 9.149 8.738 9.386 8.738 9.68 C 8.738 9.853 8.654 10.004 8.526 10.101 L 8.526 10.528 C 8.526 10.703 8.383 10.846 8.208 10.846 C 8.033 10.846 7.889 10.703 7.889 10.528 L 7.889 10.101 C 7.756 10.002 7.678 9.846 7.677 9.68 C 7.677 9.386 7.914 9.149 8.208 9.149 L 8.208 9.149 L 8.208 9.149 L 8.208 9.149 Z M 8.208 6.179 C 8.61 6.179 8.95 6.519 8.95 6.922 L 8.95 7.664 L 7.465 7.664 L 7.465 6.922 C 7.465 6.519 7.805 6.179 8.208 6.179 L 8.208 6.179 Z M 8.208 4.906 C 7.098 4.906 6.192 5.812 6.192 6.922 L 6.192 7.664 L 5.768 7.664 C 5.534 7.664 5.344 7.855 5.344 8.088 L 5.344 11.695 C 5.344 11.929 5.534 12.119 5.768 12.119 L 10.647 12.119 C 10.881 12.119 11.072 11.929 11.072 11.695 L 11.072 8.088 C 11.072 7.855 10.881 7.664 10.647 7.664 L 10.223 7.664 L 10.223 6.922 C 10.223 5.812 9.317 4.906 8.208 4.906 L 8.208 4.906 L 8.208 4.906 L 8.208 4.906 Z"/>
</svg>
